assets/icons/functional/office&editing/file-xls.svg

<svg width="32" height="32" viewBox="0 0 32 32" fill="none" xmlns="http://www.w3.org/2000/svg"><g id="Icon-FileXls"><g clip-path="url(#clip0_12_1168)"><g id="size=md (32px)"><g id="FileXls"><path id="Vector" d="M15 21V27H18.5" stroke="#101828" stroke-width="2" stroke-linecap="round" stroke-linejoin="round"/><path id="Vector_2" d="M6.5 21L11 27" stroke="#101828" stroke-width="2" stroke-linecap="round" stroke-linejoin="round"/><path id="Vector_3" d="M11 21L6.5 27" stroke="#101828" stroke-width="2" stroke-linecap="round" stroke-linejoin="round"/><path id="Vector_4" d="M22 26.5C22.5418 26.9041 23.1991 27.1232 23.875 27.125C25 27.125 26 26.75 26 25.5C26 23.5 22 24.375 22 22.5C22 21.5 22.75 20.875 23.875 20.875C24.5509 20.8768 25.2082 21.0959 25.75 21.5" stroke="#101828" stroke-width="2" stroke-linecap="round" stroke-linejoin="round"/><path id="Vector_5" d="M6 16V5C6 4.73478 6.10536 4.48043 6.29289 4.29289C6.48043 4.10536 6.73478 4 7 4H19L26 11V16" stroke="#101828" stroke-width="2" stroke-linecap="round" stroke-linejoin="round"/><path id="Vector_6" d="M19 4V11H26" stroke="#101828" stroke-width="2" stroke-linecap="round" stroke-linejoin="round"/></g></g></g></g><defs><clipPath id="clip0_12_1168"><rect width="32" height="32" rx="5" fill="white"/></clipPath></defs></svg>

<svg xmlns="http://www.w3.org/2000/svg" width="32" height="32" fill="none"><g clip-path="url(#a)" stroke="#101828" stroke-linecap="round" stroke-linejoin="round" stroke-width="2"><path d="M15 21v6h3.5m-12-6 4.5 6m0-6-4.5 6m15.5-.5a3.15 3.15 0 0 0 1.875.625C25 27.125 26 26.75 26 25.5c0-2-4-1.125-4-3 0-1 .75-1.625 1.875-1.625a3.15 3.15 0 0 1 1.875.625M6 16V5a1 1 0 0 1 1-1h12l7 7v5"/><path d="M19 4v7h7"/></g><defs><clipPath id="a"><rect width="32" height="32" fill="#fff" rx="5"/></clipPath></defs></svg>
